public/img/portions.svg

<svg width="19" height="19" viewBox="0 0 19 19" fill="none" xmlns="http://www.w3.org/2000/svg">
<path d="M5.18178 9.06819C5.18178 8.8295 4.98863 8.63635 4.74995 8.63635C4.51126 8.63635 4.31812 8.8295 4.31812 9.06819C4.31812 10.2021 5.56887 11.759 5.71141 11.9332C5.79704 12.037 5.921 12.0909 6.0458 12.0909C6.14195 12.0909 6.23895 12.0589 6.31947 11.9931C6.50375 11.8417 6.5303 11.5697 6.37934 11.385C5.91638 10.8208 5.18178 9.69312 5.18178 9.06819Z" fill="#234cad"/>
<path d="M14.2501 8.63635C14.0114 8.63635 13.8182 8.8295 13.8182 9.06819C13.8182 9.69102 13.0836 10.8199 12.6206 11.3854C12.4697 11.5697 12.4966 11.8417 12.681 11.9931C12.7611 12.0589 12.8581 12.0909 12.9546 12.0909C13.0794 12.0909 13.203 12.037 13.2886 11.9332C13.4312 11.759 14.6819 10.2022 14.6819 9.06819C14.6819 8.8295 14.4888 8.63635 14.2501 8.63635Z" fill="#234cad"/>
<path d="M9.49995 8.63635C9.26126 8.63635 9.06812 8.8295 9.06812 9.06819V11.6591C9.06812 11.8978 9.26126 12.0909 9.49995 12.0909C9.73863 12.0909 9.93178 11.8978 9.93178 11.6591V9.06819C9.93174 8.8295 9.73859 8.63635 9.49995 8.63635Z" fill="#234cad"/>
<path d="M14.25 1.72729C13.9883 1.72729 13.7148 1.7619 13.4308 1.81465C12.4798 0.705983 11.0719 0 9.5 0C7.92809 0 6.52017 0.705983 5.56915 1.81461C5.28512 1.7619 5.01166 1.72725 4.75002 1.72725C2.13082 1.72729 0 3.85811 0 6.47728C0 8.27201 1.01207 9.90355 2.60103 10.7103L2.59261 17.236C2.5922 17.7071 2.77518 18.1499 3.10791 18.483C3.44105 18.8166 3.8834 19 4.35446 19H14.6472C15.6188 19 16.4091 18.2097 16.4091 17.2381V10.7039C17.9921 9.89513 19 8.2661 19 6.47728C19 3.85811 16.8691 1.72729 14.25 1.72729ZM15.5454 17.2382C15.5454 17.7332 15.1423 18.1364 14.6472 18.1364H4.35442C4.11448 18.1364 3.88887 18.0428 3.71892 17.8729C3.54938 17.7029 3.45578 17.4773 3.45619 17.237L3.45845 15.5455H15.5454V17.2382ZM15.8128 10.0318C15.79 10.041 15.7685 10.052 15.7483 10.0651C15.6938 10.0988 15.6491 10.1435 15.6158 10.195C15.5821 10.246 15.5593 10.305 15.55 10.3683C15.5462 10.3923 15.545 10.4164 15.5454 10.4408V14.6818H3.45955L3.46509 10.4467C3.4655 10.4231 3.46424 10.399 3.46088 10.3758C3.45161 10.3104 3.42757 10.2497 3.39255 10.197C3.35964 10.1477 3.31664 10.1047 3.26434 10.0718C3.24284 10.0583 3.22005 10.0465 3.19645 10.0367C1.77914 9.41695 0.863622 8.0211 0.863622 6.47728C0.863622 4.33419 2.60694 2.59091 4.74998 2.59091C4.83374 2.59091 4.92215 2.60103 5.00891 2.60787C4.57202 3.36717 4.31815 4.2446 4.31815 5.18182C4.31815 5.42051 4.51129 5.61365 4.74998 5.61365C4.98867 5.61365 5.18181 5.42051 5.18181 5.18182C5.18181 2.8009 7.11908 0.863623 9.5 0.863623C11.8809 0.863623 13.8181 2.8009 13.8181 5.18182C13.8181 5.42051 14.0113 5.61365 14.25 5.61365C14.4887 5.61365 14.6818 5.42051 14.6818 5.18182C14.6818 4.2446 14.4279 3.36721 13.9911 2.60787C14.0778 2.60103 14.1662 2.59091 14.25 2.59091C16.3931 2.59091 18.1363 4.33423 18.1363 6.47728C18.1363 8.01563 17.2246 9.40974 15.8128 10.0318Z" fill="#234cad"/>
</svg>

<svg width="19" height="19" fill="none" xmlns="http://www.w3.org/2000/svg"><path d="M5.182 9.068a.432.432 0 10-.864 0c0 1.134 1.25 2.691 1.393 2.865a.433.433 0 00.668-.548c-.463-.564-1.197-1.692-1.197-2.317zM14.25 8.636a.432.432 0 00-.432.432c0 .623-.734 1.752-1.197 2.317a.432.432 0 00.668.548c.142-.174 1.393-1.73 1.393-2.865a.432.432 0 00-.432-.432zM9.5 8.636a.432.432 0 00-.432.432v2.591a.432.432 0 10.864 0V9.07a.432.432 0 00-.432-.433z" fill="#234cad"/><path d="M14.25 1.727c-.262 0-.535.035-.82.088A5.168 5.168 0 009.5 0C7.928 0 6.52.706 5.57 1.815a4.527 4.527 0 00-.82-.088C2.13 1.727 0 3.858 0 6.477a4.748 4.748 0 002.601 4.233l-.008 6.526c0 .471.182.914.515 1.247A1.75 1.75 0 004.354 19h10.293c.972 0 1.762-.79 1.762-1.762v-6.534A4.75 4.75 0 0019 6.477c0-2.619-2.13-4.75-4.75-4.75zm1.295 15.511a.9.9 0 01-.898.898H4.354a.893.893 0 01-.635-.263.892.892 0 01-.263-.636l.002-1.691h12.087v1.692zm.268-7.206a.422.422 0 00-.263.336.418.418 0 00-.005.073v4.24H3.46l.005-4.234a.445.445 0 00-.072-.25.428.428 0 00-.197-.16 3.885 3.885 0 01-2.332-3.56A3.89 3.89 0 014.75 2.591c.084 0 .172.01.259.017a5.144 5.144 0 00-.69 2.574.432.432 0 10.863 0A4.323 4.323 0 019.5.864a4.323 4.323 0 014.318 4.318.432.432 0 10.864 0c0-.937-.254-1.815-.69-2.574.086-.007.174-.017.258-.017a3.89 3.89 0 013.886 3.886 3.887 3.887 0 01-2.323 3.555z" fill="#234cad"/></svg>
